packages/ffe-icons/icons/filled/sm/space_dashboard.svg

<svg xmlns="http://www.w3.org/2000/svg" height="20" viewBox="0 -960 960 960" width="20"><path d="M228.309-164.001q-26.527 0-45.417-18.891-18.891-18.89-18.891-45.417v-503.382q0-26.527 18.891-45.417 18.89-18.891 45.417-18.891h161.385q26.526 0 45.417 18.891 18.89 18.89 18.89 45.417v503.382q0 26.527-18.89 45.417-18.891 18.891-45.417 18.891H228.309Zm341.997 0q-25.826 0-45.066-18.891-19.241-18.89-19.241-45.417v-187.384q0-26.527 19.241-45.417Q544.48-480 570.306-480h161.385q26.527 0 45.417 18.89 18.891 18.89 18.891 45.417v187.384q0 26.527-18.891 45.417-18.89 18.891-45.417 18.891H570.306Zm0-367.998q-25.826 0-45.066-19.24-19.241-19.24-19.241-45.067v-135.385q0-26.527 19.241-45.417 19.24-18.891 45.066-18.891h161.385q26.527 0 45.417 18.891 18.891 18.89 18.891 45.417v135.385q0 25.827-18.891 45.067-18.89 19.24-45.417 19.24H570.306Z"/></svg>

<svg xmlns="http://www.w3.org/2000/svg" height="20" viewBox="0 -960 960 960" width="20"><path d="M228.31-164q-26.53 0-45.42-18.89T164-228.31v-503.38q0-26.53 18.89-45.42T228.31-796h161.38q26.53 0 45.42 18.89T454-731.69v503.38q0 26.53-18.89 45.42T389.69-164H228.31Zm342 0q-25.83 0-45.07-18.89Q506-201.78 506-228.31v-187.38q0-26.53 19.24-45.42T570.31-480h161.38q26.53 0 45.42 18.89T796-415.69v187.38q0 26.53-18.89 45.42T731.69-164H570.31Zm0-368q-25.83 0-45.07-19.24Q506-570.48 506-596.31v-135.38q0-26.53 19.24-45.42T570.31-796h161.38q26.53 0 45.42 18.89T796-731.69v135.38q0 25.83-18.89 45.07Q758.22-532 731.69-532H570.31Z"/></svg>
